X: 15928
T: Grandmother's
R: polka
M: 2/4
K: Gmajor
|:D|G/F/G/A/ B/A/G/A/|BG GF|EA EF|GD/E/ DF|
G/F/G/A/ B/A/G/A/|BG GF|EA EF|G3:|
|:c|Bd d>c|B/c/d/e/ d>c|Bd BG|AF D>A|
Bd d>c|B/c/d/e/ d>A|G>A BA|G3:|

